svg/OSM-icons/amenity #7bffff °373737 !label=enamenities,deEinrichtungen/12014;amenity=bus_station;!name=;!bench=;!advertising=;feature_group=tourism,public_transport;!label=enbus station,deBusbahnhof.svg

<svg xmlns="http://www.w3.org/2000/svg" viewBox="0 0 580 580" enable-background="new 0 0 580 580"><path fill="#111" stroke="#eee" stroke-width="3.408" d="m66.28 1.768c-41.34 0-64.57 21.371-64.57 65.04v450.12c0 40.844 20.895 62.23 62.19 62.23h452.02c41.31 0 62.23-20.315 62.23-62.23v-450.12c0-42.601-20.923-65.04-63.52-65.04-.004 0-448.5-.143-448.35 0z"/><g fill="#fff"><path d="m395.09 113.75c-20.348-8.479-69.12-18.611-105.1-18.894-35.981.285-84.73 10.415-105.08 18.894-20.638 8.599-34.401 17.203-38.701 38.701l-15.475 119.19v164.22h26.666v25.753c0 31.401 45.936 31.401 45.936 0v-25.753h84.85.258 88.19v25.753c0 31.401 45.959 31.401 45.959 0v-25.753h26.668v-164.22l-15.477-119.19c-4.299-21.499-18.06-30.1-38.701-38.702m-170.61 11.191h63.962 67.08c12.9 0 12.9 19.339 0 19.339h-67.22-63.823c-12.899 0-12.899-19.339 0-19.339m-44.08 259.43c-12.173 0-22.06-9.857-22.06-22.03s9.882-22.06 22.06-22.06 22.03 9.882 22.03 22.06-9.858 22.03-22.03 22.03m108.05-100.18h-116.92c-11.447 0-13.836-8.22-12.713-16.505l12.06-86.44c1.655-10.502 5.197-17.418 18.824-17.418h98.61 101.99c13.625 0 17.191 6.916 18.846 17.418l12.06 86.44c1.123 8.285-1.291 16.505-12.736 16.505h-120.01m111.16 100.18c-12.172 0-22.05-9.857-22.05-22.03s9.881-22.06 22.05-22.06c12.174 0 22.03 9.882 22.03 22.06s-9.858 22.03-22.03 22.03"/><path d="m288.44 94.83c.508 0 1.033.019 1.547.023.515-.005 1.035-.023 1.544-.023h-3.091"/><path d="m483.27 96.73c-51.625-51.626-120.26-80.06-193.27-80.06s-141.65 28.431-193.27 80.06c-51.625 51.624-80.06 120.26-80.06 193.27s28.431 141.65 80.06 193.27c51.625 51.625 120.27 80.06 193.27 80.06s141.65-28.431 193.27-80.06 80.06-120.26 80.06-193.27-28.432-141.65-80.06-193.27m-193.27 442.56c-137.46 0-249.29-111.83-249.29-249.29s111.83-249.29 249.29-249.29 249.29 111.83 249.29 249.29-111.83 249.29-249.29 249.29"/></g></svg>

<?xml version="1.0" encoding="utf-8"?>
<!-- Generator: Adobe Illustrator 15.0.0, SVG Export Plug-In . SVG Version: 6.00 Build 0)  -->
<!DOCTYPE svg PUBLIC "-//W3C//DTD SVG 1.1//EN" "http://www.w3.org/Graphics/SVG/1.1/DTD/svg11.dtd">
<svg version="1.1" xmlns="http://www.w3.org/2000/svg" xmlns:xlink="http://www.w3.org/1999/xlink" x="0px" y="0px" width="580px"
	 height="580px" viewBox="0 0 580 580" enable-background="new 0 0 580 580" xml:space="preserve">
<g id="Layer_2">
	<g id="g1327">
		<path id="path1329" fill="#111111" stroke="#EEEEEE" stroke-width="3.408" d="M66.275,1.768
			c-41.335,0-64.571,21.371-64.571,65.036v450.123c0,40.844,20.895,62.229,62.192,62.229H515.92
			c41.307,0,62.229-20.315,62.229-62.229V66.804c0-42.601-20.923-65.036-63.521-65.036C514.624,1.768,66.133,1.625,66.275,1.768z"/>
	</g>
</g>
<g id="Layer_3">
	<g>
		<path fill="#FFFFFF" d="M395.086,113.752c-20.348-8.479-69.117-18.611-105.097-18.894c-35.981,0.285-84.729,10.415-105.077,18.894
			c-20.638,8.599-34.401,17.203-38.701,38.701l-15.475,119.191V435.86h26.666v25.753c0,31.401,45.936,31.401,45.936,0V435.86h84.846
			h0.258h88.195v25.753c0,31.401,45.959,31.401,45.959,0V435.86h26.668V271.645l-15.477-119.191
			C429.488,130.955,415.725,122.352,395.086,113.752z M224.48,124.943h63.962h67.078c12.9,0,12.9,19.339,0,19.339h-67.217H224.48
			C211.581,144.282,211.581,124.943,224.48,124.943z M180.395,384.376c-12.173,0-22.055-9.857-22.055-22.03
			s9.882-22.055,22.055-22.055s22.03,9.882,22.03,22.055S192.567,384.376,180.395,384.376z M288.442,284.194H171.521
			c-11.447,0-13.836-8.22-12.713-16.505l12.057-86.439c1.655-10.502,5.197-17.418,18.824-17.418h98.613h101.985
			c13.625,0,17.191,6.916,18.846,17.418l12.059,86.439c1.123,8.285-1.291,16.505-12.736,16.505H288.442z M399.604,384.376
			c-12.172,0-22.053-9.857-22.053-22.03s9.881-22.055,22.053-22.055c12.174,0,22.031,9.882,22.031,22.055
			S411.777,384.376,399.604,384.376z"/>
		<path fill="#FFFFFF" d="M288.442,94.835c0.508,0,1.033,0.019,1.547,0.023c0.515-0.005,1.035-0.023,1.544-0.023H288.442z"/>
		<path fill="#FFFFFF" d="M483.273,96.728C431.648,45.102,363.009,16.671,290,16.671S148.352,45.102,96.727,96.728
			C45.102,148.352,16.671,216.991,16.671,290s28.431,141.648,80.056,193.273c51.625,51.625,120.265,80.056,193.273,80.056
			s141.648-28.431,193.273-80.056S563.329,363.009,563.329,290S534.897,148.352,483.273,96.728z M290,539.292
			C152.54,539.292,40.709,427.46,40.709,290S152.54,40.709,290,40.709S539.292,152.54,539.292,290S427.46,539.292,290,539.292z"/>
	</g>
</g>
</svg>
